X:1
T:Duffers at Sea
C:T. S. Macdonald
M:6/8
L:1/8
K:A
cea c'ae | cae fBB | cAe caf | gf^d e2 f | cea c'ae | cae fdc | dAF DA,D | ECA, A,3 ||
cAE ecA | dBF DB,A, | cAE ecA | FE^D E2 B | ecA acA | Bdf bfd | afd AFD | ECA, A,3 |]
